lib/brands/icons/ms-azure.svg

<svg xmlns="http://www.w3.org/2000/svg" fill="none" aria-hidden="true" viewBox="0 0 48 48"><g id="ms-azure-Icon"><path id="Vector" fill="#008CDB" d="M27.75 25.6876C26.75 25.6876 25.875 26.3125 25.375 27.1876H10.625C8.125 27.1876 6.125 25.0626 6.125 22.5626C6.125 20.0626 8.125 17.9376 10.625 17.9376H12.75C12.75 17.4376 13 16.9376 13.125 16.4376C13.25 16.3126 13.25 16.0626 13.375 15.9376C14.375 14.0626 16.375 12.8126 18.625 12.8126C20.625 12.8126 22.375 13.8126 23.5 15.3126C24.125 15.0626 24.75 14.8126 25.5 14.6876C24.125 12.3126 21.625 10.8126 18.625 10.8126C15.25 10.8126 12.375 12.9376 11.125 15.9376H10.625C7 15.9376 4 18.9376 4 22.6876C4 26.4376 7 29.3126 10.625 29.3126H25.5C25.875 30.1876 26.75 30.8126 27.875 30.8126C29.2502 30.8126 30.375 29.6876 30.375 28.1876C30.375 26.6876 29.25 25.6876 27.75 25.6876V25.6876ZM36 20.5625C34.5 17.5625 31.375 15.4375 27.875 15.4375C23.5 15.4375 19.875 18.5625 19 22.6875C16.875 22.9375 15 24.0625 13.875 25.6875H24.75C25.5 24.6875 26.6252 24.1875 27.875 24.1875C30.125 24.1875 31.875 26.0625 31.875 28.3125C31.875 30.5625 30 32.4375 27.875 32.4375C26.625 32.4375 25.5 31.8125 24.75 30.9375H12.625C13.125 34.4375 16.125 37.1875 19.625 37.1875H35.875C40.375 37.1875 44 33.5625 44 28.9375C44 24.3125 40.375 20.6875 36 20.5625V20.5625Z"/></g></svg>

<svg xmlns="http://www.w3.org/2000/svg" fill="none" aria-hidden="true" viewBox="0 0 48 48"><path fill="#008CDB" d="M27.75 25.688c-1 0-1.875.625-2.375 1.5h-14.75c-2.5 0-4.5-2.125-4.5-4.625s2-4.625 4.5-4.625h2.125c0-.5.25-1 .375-1.5.125-.125.125-.375.25-.5 1-1.875 3-3.125 5.25-3.125 2 0 3.75 1 4.875 2.5.625-.25 1.25-.5 2-.625-1.375-2.375-3.875-3.875-6.875-3.875-3.375 0-6.25 2.125-7.5 5.125h-.5C7 15.938 4 18.938 4 22.688s3 6.625 6.625 6.625H25.5c.375.875 1.25 1.5 2.375 1.5 1.375 0 2.5-1.125 2.5-2.625s-1.125-2.5-2.625-2.5ZM36 20.563c-1.5-3-4.625-5.125-8.125-5.125-4.375 0-8 3.124-8.875 7.25-2.125.25-4 1.375-5.125 3H24.75c.75-1 1.875-1.5 3.125-1.5 2.25 0 4 1.875 4 4.125s-1.875 4.125-4 4.125c-1.25 0-2.375-.626-3.125-1.5H12.625c.5 3.5 3.5 6.25 7 6.25h16.25c4.5 0 8.125-3.626 8.125-8.25 0-4.625-3.625-8.25-8-8.375Z"/></svg>
